X:485
M:C
L:1/8
K:D
d/B/|A<D G/F/E/D/ A<D Dd/B/|A<D G/F/E/D/ A2 Ad/c/|
f/g/|a>df>d a<d df/g/|a>df>d a2 af/a/|b>eg>e b<e ed/B/|
d>e g/f/e/d/ B2 A<B|d>e f<a e<fd<B|A<F D>F A>Bd>e|
f>de>B d>AB>F|E/E/E F>A B2B||

